UI/POI/SVG/beach_outline_24px.svg

<svg width="24" height="24" viewBox="0 0 24 24" fill="none" xmlns="http://www.w3.org/2000/svg">
<path d="M13 22H11V16H13V22ZM22 12L21 14H17L16 12H14L13 14H11L10 12H8L7 14H3L2 12V11.88C2.27434 9.69206 3.34237 7.68097 5.0014 6.2284C6.66043 4.77583 8.795 3.98287 11 4V2H13V4H13.05C15.2464 3.99513 17.3688 4.79362 19.0173 6.24505C20.6658 7.69648 21.7267 9.70065 22 11.88V12ZM19.93 11.67C19.6209 10.0726 18.765 8.63282 17.5094 7.59807C16.2538 6.56332 14.677 5.99825 13.05 6H11C9.37299 5.99825 7.79618 6.56332 6.54061 7.59807C5.28504 8.63282 4.42913 10.0726 4.12 11.67L4.29 12H5.76L6.21 11.11L6.76 10H11.24L11.79 11.11L12 11.53L12.21 11.11L12.76 10H17.24L17.79 11.11L18.24 12H19.76L19.93 11.67Z" fill="#0F1621"/>
</svg>

<svg xmlns="http://www.w3.org/2000/svg" width="24" height="24" viewBox="0 0 24 24"><rect width="24" height="24" style="fill:none"/><path d="M13,22H11V16h2Zm9-10-1,2H17l-1-2H14l-1,2H11l-1-2H8L7,14H3L2,12v-.12A9,9,0,0,1,11,4H11V2h2V4h.05A9,9,0,0,1,22,11.88Zm-2.07-.33A7,7,0,0,0,13.05,6H11a7,7,0,0,0-6.88,5.67l.17.33H5.76l.45-.89L6.76,10h4.48l.55,1.11.21.42.21-.42L12.76,10h4.48l.55,1.11.45.89h1.52Z"/></svg>
